X:1
T:Jubilate Deo omnis terra
T:Josquin des Prez (ca. 1440-1521) Edited by Charles H. Giffen
T:Psalm 100(99)
T:Jubilate Deo omnis terra
T:Edition Copyright © 2005 by Charles H. Giffen
T:Edition Copyright © 2005 by Charles H. Giffen
T:Edition Copyright © 2005 by Charles H. Giffen
T:Edition Copyright © 2005 by Charles H. Giffen
T:Edition Copyright © 2005 by Charles H. Giffen
T:Edition Copyright © 2005 by Charles H. Giffen
T:Edition Copyright © 2005 by Charles H. Giffen
C:Josquin des Prez
Z:Edition Copyright © 2005 by Charles H. Giffen
%%score [ 1 2 3 4 ]
L:1/8
Q:1/4=240
M:2/2
K:C
V:1 treble nm="Discantus"
V:2 treble-8 nm="Altus"
V:3 treble-8 nm="Tenor"
V:4 bass nm="Bassus"
V:1
"^Prima pars." z16 | A12 A4 | E8 A8 | G8 E8 | z4 G8 A4 | B8 G8 | A8 B8 | c6 B2 A4 G4- | %8
w: |Ju- bi-|la- te|De- o,|om- nis|ter- *|||
 G2 F2 E2 D2 E8 | D16 | E4 F8 E2 D2 | E16- | E16 | z16 | z16 | z16 | z16 | z8 d8 | c4 A4 c8 | B16 | %20
w: |||ra:|_|||||ser-|vi- te Do-|mi-|
 A16 | z4 c4 B4 G4 | A6 B2 c8- | c4 B2 A2 G8- | G8 z8 | z16 | z4 c8 B4 | A4 G4 F4 E4 | D4 C4 B,8 | %29
w: no|in lae- *|ti- * *|* ti- * a.|_||In- tro-|i- te in con-|spec- tu e-|
 A,4 A8 G4 | A8 z8 | z8 A8 | B8 B8 | c8 B4 A4- | A2 G2 G8 ^F4 | G16 | z16 | z16 | z16 | z16 | z16 | %41
w: |jus,|in|ex- sul-|ta- ti- o-||ne.||||||
 z16 | z16 | z16 | c12 c4 | A8 B8 | G8 z4 c4- | c4 A4 B8 | G8 z4 c4- | c4 A4 B8 | G12 A4- | %51
w: |||Po- pu-|lus e-|jus, et|_ _ o-|ves pa-|* * scu-|ae e-|
 A4 G8 ^F4 | G16 | c12 c4 | c8 A8 | d12 d4 | B8 G8 | c12 c4 | c4 c4 c8 | A8 d8 | d4 d4 B8 | %61
w: |jus:|in- tro-|i- te|por- tas-|e- jus|in con-|fes- si- o-|ne, a-|tri- a e-|
 G8 c8- | c8 c8 | A8 d8- | d4 d4 d4 d4 | B8 c8 | A12 B4 | c12 B2 A2 | G16- | G16- | G16 |] %71
w: jus in|_ hym-|nis: con-|* fi- te- mi-|ni _|il- *||li.|_||
"^Secunda pars." c16 | c8 c8 | B16 | A16 | z8 A8 | A8 A8 | G8 E8 | F16 | E8 G8- | G4 A4 B4 c4 | %81
w: Lau-|da- te|no-|men,|lau-|da- te|no- men|e-|jus: quo-|* ni- am su-|
 d6 c2 B4 A4 | G8 c8 | B4 d6 c2 B2 A2 | =G4 A8 =G4 | A16 | z8 A8- | A4 A4 A8 | G8 G8 | A8 G8 | %90
w: a- * * vis|est Do-||* * mi-|nus,|in|_ ae- ter-|num mi-|se- ri-|
 A8 B8 | G4 c6 B2 A2 G2 | ^F4 G8 F4 | G8 z4 G4 | A8 B8 | c12 B4 | A4 G4 A8 | G4 c8 B4- | %98
w: cor- di-|a e- * * *||jus, et|us- *|que in|ge- ne- ra-|ti- o- *|
 B4 A8 =G4 | A16- | A16 | z16 | G16 | A8 B4 d4- | d2 c2 B2 A2 G8 | A16 | G16 | z16 | z16 | z16 | %110
w: |nem|_||et|ge- ne- ra-|* * * * ti-|o-|nem||||
 z8 A8 | B8 c8- | c4 B4 A8 | G4 A6 G2 F2 E2 | D4 G8 ^F4 | G8 E4 G4- | G2 F2 E8 D4 | E16- | E16- | %119
w: ve-||* * ri-|tas e- * * *||||jus.|_|
 E16- | E16- | E16- | E16- | E16 |] %124
w: |||||
V:2
 d12 d4 | A8 d8 | c8 A8 | z4 c8 d4 | e8 c8 | d8 e8 | c4 d4 B8 | A6 B2 c2 d2 e4- | e2 d2 d8 ^c4 | %9
w: Ju- bi-|la- te|De- o,|om- nis|ter- *|||||
 d16 | c8 A8 | z4 c8 d4 | e16- | e16 | z16 | z16 | z16 | z8 D8 | E4 F4 E4 e4- | e4 d2 c2 B8 | %20
w: |* ra,|ter- *|ra:|_||||ser-|vi- * te Do-|* * * mi-|
 c4 A4 c4 d4 | e8 d4 B4 | d8 c8- | c8 B4 G4 | B6 c2 d2 e2 d4- | d2 c2 c6 B2 B4 | c16 | z16 | z16 | %29
w: no in lae- *|ti- * *||||* * * * ti-|a.|||
 z16 | A8 B8 | A4 G8 ^F4 | G8 z4 g4- | g2 e2 f4 g4 d4- | d2 B2 c4 d8 | B4 c4 G4 c4- | c4 B4 c4 g4 | %37
w: |in con-|spec- tu e-|jus, in|_ _ ex- sul- ta-|* * ti- o-|ne. Sci- to- *|* * te quo-|
 g6"^*" fe d8 | z4 g6 f2 d4- | d2 e2 f6 e2 c2 d2 | e6 d2 B6 c2 | d16 | c8 z8 | z16 | z8 f8- | %45
w: ni- * * am|Do- * *|* * * * mi- *|nus ip- se est|De-|us:||Po-|
 f4 f4 d8 | e8 c8 | z4 f4 d8- | d8 e8 | c4 f8 d4 | e8 d4 d4- | d4 c4 d8 | B4 e12 | c16 | z4 f8 f4 | %55
w: * pu- lus|e- jus,|et o-|* ves|pa- * *|scu- ae e-|||jus:|in- tro-|
 f8 d8 | z4 g8 g4 | e8 c8 | z4 f8 f4 | f4 f4 f8 | d8 z4 g4 | g4 g4 e8 | c8 f8 | f8 f4 f4- | %64
w: i- te|por- tas|e- jus|in con-|fes- si- o-|ne, a-|tri- a e-|jus in|hym- nis: con-|
 f4 f4 f4 f4 | e16 | d16 | c12 d4 | e12 d2 c2 | B16- | B16 |] e16 | e8 e8 | d12 e4 | f16 | %75
w: * fi- te- mi-|ni|il-|||li.|_|Lau-|da- te|no- *|men,|
 z4 c6 d2 e4- | e4 d2 c2 d8 | e4 E6 F2 G4- | G4 F2 E2 F8 | G16 | z16 | z8 d8 | g12 e4 | d8 f8 | %84
w: e- * *||jus, e- * *||jus:||su-|a- vis|est Do-|
 e4 d4 e8 | c4 f8 e2 d2 | c4 f4 e8 | d8 e8- | e16 | c4 A4 B4 c4 | A8 G8 | c6 d2 e8 | d4 c4 d8 | %93
w: * * mi-|nus, in _ _|_ ae- ter-|* num|_|mi- se- ri- cor-|di- a|e- * *||
 B4 c4 d8 | z16 | z16 | z8 A8 | B4 e8 d2 c2 | d2 c2 B2 A2 B8 | A4 d4 e8 | f12 e4 | d4 c8 B4 | c16 | %103
w: * * jus,|||in|ge- * ne- *|ra- * ti- * o-|nem et _|ge- ne-|ra- ti- o-|nem,|
 z16 | d16 | c8 A8 | B12 c4 | d16 | B4 d6 c2 B2 A2 | G8 z8 | z16 | d8 e8 | c8 d8 | e4 c4 d8- | %114
w: |et|ge- *|ne- *|ra-|ti- o- * * *|nem||ve- *|ri- *|tas e- *|
 d4 c4 d8 | B8 z4 B4- | B4 c4 A8 | G4 c4 B4 e4- | e2 d2 c4 B8 | A4 c8 B2 A2 | B12 G4 | G12 A4 | %122
w: |jus, ve-|* * ri-|tas e- * *||jus, ve- * *|* ri-|tas _|
 A16 | ^G16 |] %124
w: e-|jus.|
V:3
 z16 | z16 | z16 | z16 | z16 | z16 | z16 | z16 | z16 | z16 | A12 A4 | E8 A8 | G8 E8 | z4 G8 A4 | %14
w: ||||||||||Ju- bi-|la- te|De- o,|om- nis|
 B8 G8 | A8 B4 c4- | c2 B2 A2 G2 F4 E2 F2 | G2 E2 A8 ^G4 | A16 | E16 | z8 A8 | G4 E4 G8 | F16 | %23
w: ter- *|||||ra:|ser-|vi- te Do-|mi-|
 E16 | z16 | z16 | z4 e8 d4 | c4 B4 d6 c2 | B2 A2 A8 G4 | c8 B8 | A8 G8 | z8 c8 | B6 c2 d8 | %33
w: no|||In- tro-|i- te in con-|spec- * * tu|e- *|* jus,|in|ex- * sul-|
 c4 A4 B6 c2 | G8 A8 | z4 G8 G4- | G2 G2 B4 A4 G4 | B6 c2 d8 | d4 d4 d8 | z4 d8 A4 | c8 G4 B4- | %41
w: ta- * * ti-|o- ne.|Sci- to-|* te quo- ni- am|Do- mi- nus|ip- se est|De- us:|ip- se fe-|
 B4 B4 A8 | z4 c4 B4 A4 | c6 B2 A4 ^G4 | A16 | z4 d8 d4 | B8 c8 | A8 z4 d4- | d4 B4 c8 | A4 d8 B4 | %50
w: * cit nos|et non _|ip- * * si|nos.|Po- pu-|lus e-|jus, et|_ _ o-|ves pa- *|
 c8 B4 A4 | B4 c4 A8 | G8 c8- | c4 c4 c8 | A8 d8- | d4 d4 B8 | G8 c8- | c4 c4 c4 c4 | c8 A8 | %59
w: * scu- ae|e- * *|jus: in-|* tro- i-|te por-|* tas e-|jus in|_ con- fes- si-|o- ne,|
 d8 d4 d4 | B8 G8 | c16 | c8 A8- | A8 A8- | A4 A4 A4 A4 | G8 E8 | F16- | F16 | E16- | E16- | E16 |] %71
w: a- tri- a|e- jus|in|hym- nis:|_ con-|* fi- te- mi-|ni _|il-||li.|_||
 A16 | G8 G8 | G16 | c16- | c16 | z8 A8 | B8 c8- | c4 B2 A2 B8 | c8 G6 A2 | B4 c4 d4 e4 | d12 c4 | %82
w: Lau-|da- te|no-|men,|_|e-|||jus: quo- *|* ni- am su-|a- *|
 B4 A4 G4 c4 | d4 f6 e2 d2 c2 | B4 A4 B8 | A12 B4 | c4 d8 ^c4 | d8 c8- | c4 B2 A2 B8 | A8 z4 c4- | %90
w: * * * vis|est Do- * * *|* * mi-|nus, in|ae- ter- *|||num mi-|
 c4 d8 B4 | c4 e6 d2 c2 B2 | A4 G4 A8 | G4 c8 B4 | c4 A4 d8 | c16 | d4 e8 d4 | e16- | e16 | z8 c8 | %100
w: * se- ri-|cor- * * di- *|a _ e-|jus, et us-|que in ge-|ne-|ra- ti- o-|nem|_|et|
 d12 c4 | d4 e4 f8 | e16 | c8 d8- | d8 B8 | c16 | B8 G8 | A16 | G16 | z4 d8 c2 B2 | c4 B4 A8 | %111
w: ge- ne-|ra- ti- o-|nem|ve- *|* ri-|tas|e- *||jus,|ve- * *||
 G16 | A16 | B4 A4 d8 | B4 c4 A8 | G16 | z8 D8 | G6 A2 B4 c4- | c2 B2 A8 ^G4 | A16 | G12 E4 | %121
w: ri-||tas e- *||jus,|ve-|ri- * tas e-||||
 E16- | E16- | E16 |] %124
w: jus.|_||
V:4
 z16 | z16 | z16 | z16 | z16 | z16 | z16 | z16 | z16 | D,12 D,4 | A,,8 D,8 | C,8 A,,8 | %12
w: |||||||||Ju- bi-|la- te|De- o,|
 z4 C,8 D,4 | E,8 C,8 | D,4 E,6 D,2 C,2 B,,2 | A,,4 A,4 G,4 E,4 | F,6 E,2 D,4 E,4- | %17
w: om- nis|ter- *||||
 E,2 C,2 D,4 B,,8 | A,,8 z4 A,4 | G,4 E,4 G,8 | F,16 | E,8 z8 | D,8 A,8 | A,,8 E,6 F,2 | %24
w: |ra: ser-|vi- te Do-|mi-|no|in lae-|ti- * *|
 G,2 A,2 G,8 F,2 E,2 | F,2 E,2 D,2 C,2 D,8 | C,16 | z16 | z16 | z8 z4 G,4- | G,4 F,4 E,4 D,4 | %31
w: |* * * * ti-|a.|||in|_ con- spec- tu|
 C,4 B,,4 A,,8 | G,,8 z4 G,4 | A,8 G,4 F,4 | E,8 D,8 | G,,4 C,4 C,6 C,2 | E,4 D,4 C,4 E,4- | %37
w: e- * *|jus, in|ex- sul- ta-|ti- o-|ne. Sci- to- te|quo- ni- am Do-|
 E,2 F,2 G,4 G,4 G,4 | G,8 z4 G,4- | G,4 D,4 F,8 | C,4 E,8 E,4 | D,8 z4 F,4 | E,4 F,4 D,4 F,4 | %43
w: * mi- nus ip- se|est De-|* us: ip-|se fe- cit|nos, et|non ip- * *|
 E,6 D,2 C,4 B,,4 | A,,8 z4 A,4- | A,4 F,4 G,8- | G,4 E,4 A,8 | F,8 G,8- | G,8 C,8 | F,8 G,8 | %50
w: * * * si|nos. Po-|* * pu-|* lus e-|* jus,|_ et|o- ves|
 C,8 G,4 F,4 | E,8 D,8 | E,4 C,6 D,2 E,4 | A,,8 z4 F,4- | F,4 F,4 F,8 | D,8 z4 G,4- | G,4 G,4 E,8 | %57
w: pa- scu- ae|e- *||jus: in-|* tro- i-|te por-|* tas e-|
 C,8 z4 F,4- | F,4 F,4 F,4 F,4 | F,8 D,8 | z4 G,4 G,4 G,4 | E,8 C,8 | F,8 F,8- | F,8 D,4 D,4- | %64
w: jus in|_ con- fes- si-|o- ne,|a- tri- a|e- jus|in hym-|* nis: con-|
 D,4 D,4 D,4 D,4 | E,8 C,8 | D,6 E,2 F,4 G,4 | A,8 A,,8 | C,6 D,2 E,4 F,4 | G,12 E,4 | E,16 |] %71
w: * fi- te- mi-|ni _|il- * * *|* li,|il- * * *||li.|
 A,,16 | C,16 | G,,8 G,8 | F,12 E,2 D,2 | E,4 F,4 C,8 | F,16 | E,8 C,8 | D,16 | %79
w: Lau-|da-|te no-||* * men|e-||jus:|
 A,,2 B,,2 C,2 D,2 E,6 F,2 | G,12 C,4 | G,4 D,4 G,8- | G,4 F,4 E,4 C,4 | G,4 D,12 | E,4 F,4 E,8 | %85
w: quo- * * * * ni-|am su-|a- * *|* * * vis|est Do-|* * mi-|
 F,4 D,4 F,4 G,4 | A,4 D,4 A,8 | D,6 C,2 A,,8 | E,16 | F,8 E,4 C,4 | F,4 D,4 G,8 | C,8 z4 C,4 | %92
w: nus, in _ ae-|ter- * *|* * num|mi-|se- * ri-|cor- * di-|a e-|
 D,4 E,4 D,8 | G,,16 | z4 D,4 G,,4 G,4 | A,12 G,4 | F,4 E,4 F,8 | E,16- | E,16 | F,4 D,4 A,8 | %100
w: |jus,|us- que in|ge- ne-|ra- ti- o-|nem|_|et _ _|
 D,8 F,8- | F,4 E,4 D,8 | C,16- | C,8 B,,8- | B,,16 | A,,16 | E,16 | D,16 | G,,8 z4 G,,4 | %109
w: ge- *|* ne- ra-||* ti-||o-|||nem ve-|
 G,,2 A,,2 B,,2 C,2 D,2 E,2 F,2 G,2 | A,4 G,8 ^F,4 | G,8 C,8 | F,16 | E,4 F,4 D,4 F,4 | %114
w: ri- * * * * * * *|* * tas|e- *||jus, ve- * *|
 G,4 E,4 D,8 | E,6 F,2 G,4 E,4 | G,4 A,4 F,8 | E,12 A,,4- | A,,2 B,,2 C,2 D,2 E,8 | A,,16 | E,16 | %121
w: * ri- tas|e- * * *||jus, e-||||
 C,12 A,,4 | A,,16 | E,,16 |] %124
w: ||jus.|

